X: 42863
T: Wild Mountain Thyme
R: barndance
M: 4/4
K: Emajor
ec|B2 B2 c2 e2|e2 e2 g2 b2|c'2 c'2 b2 gb|b2 gb3 c'2|
b2 g2 fe- e2|f2 g2 a3g|f2 e2 ce3|e2 c2 B2 c2|
e2 e2 e2 gb|c'2 c'2 b2 gb|b2 g2 b2 c'2|b2 g2 fe e2|
f2 g2 a2 g2|f2 e2 c<e e2|ec B2 c2 e2|e2 e2 e2||

